svg/fluentui-system-icons/ic_fluent_note_add_48_filled.svg

<svg width="48" height="48" viewBox="0 0 48 48" fill="none" xmlns="http://www.w3.org/2000/svg">
<path d="M24 13C24 19.0751 19.0751 24 13 24C6.92487 24 2 19.0751 2 13C2 6.92487 6.92487 2 13 2C19.0751 2 24 6.92487 24 13ZM14 6C14 5.44772 13.5523 5 13 5C12.4477 5 12 5.44772 12 6V12H6C5.44771 12 5 12.4477 5 13C5 13.5523 5.44771 14 6 14H12V20C12 20.5523 12.4477 21 13 21C13.5523 21 14 20.5523 14 20V14H20C20.5523 14 21 13.5523 21 13C21 12.4477 20.5523 12 20 12H14V6ZM13 26C20.1797 26 26 20.1797 26 13C26 10.4227 25.25 8.0206 23.9564 6H35.75C39.2018 6 42 8.79822 42 12.25V25.9289C42 25.9526 41.9999 25.9763 41.9996 26H32.25C28.7982 26 26 28.7982 26 32.25V41.9996C25.9763 41.9999 25.9526 42 25.9289 42H12.25C8.79822 42 6 39.2018 6 35.75V23.9564C8.0206 25.25 10.4227 26 13 26ZM41.4467 28.5H32.25C30.1789 28.5 28.5 30.1789 28.5 32.25V41.4467C29.1818 41.139 29.8092 40.7085 30.3483 40.1694L40.1694 30.3484C40.7085 29.8092 41.139 29.1818 41.4467 28.5Z" fill="#212121"/>
</svg>

<svg xmlns="http://www.w3.org/2000/svg" width="48" height="48"><path d="M24 13c0 6.075-4.925 11-11 11S2 19.075 2 13 6.925 2 13 2s11 4.925 11 11ZM14 6a1 1 0 1 0-2 0v6H6a1 1 0 1 0 0 2h6v6a1 1 0 1 0 2 0v-6h6a1 1 0 1 0 0-2h-6V6Zm-1 20c7.18 0 13-5.82 13-13 0-2.577-.75-4.98-2.044-7H35.75A6.25 6.25 0 0 1 42 12.25V26h-9.75A6.25 6.25 0 0 0 26 32.25V42H12.25A6.25 6.25 0 0 1 6 35.75V23.956A12.94 12.94 0 0 0 13 26Zm28.447 2.5H32.25a3.75 3.75 0 0 0-3.75 3.75v9.197a6.248 6.248 0 0 0 1.848-1.278l9.821-9.82a6.25 6.25 0 0 0 1.278-1.849Z"/></svg>
